X: 23673
T: Linen Cap, The
R: reel
M: 4/4
K: Gmajor
g2dc BcdB|ABcd eAAf|g2dc BcdB|cedc BGGf
g2dc BcdB|ABcd edef|gfdg egdB|cedc BGdc|
BGDG BGcB|ABcd eAAc|BGDG BGAB|cedc BGGc|
BGDG BGcB|ABcd edef|gfdg egdB|cedc BGG2|

